X: 1
T: Sl\"angpolska fr. Sm\aaland
S: Andrea Hoag's 5th workshop 10/6/93 A-2
Z: 2006 John Chambers <jc@trillian.mit.edu>
N: handwritten MS
M: 3/4
L: 1/16
K: D
|: dcdc dcdc dcde |    f2fe d2dc B4  | BABA BABA BABc | d2dc B2BA G4  | E2G2 B2e2 fge2 |
|  eddc e4   d4  :: {e}fgef d2fd e3e | f2ef g2g2 e3e  | fgef d2fd e3f | gfed c2d2 d4  :|

%%sep 1 1 500

